img/ui/effect-shadow-2.svg

<svg fill="none" height="53" viewBox="0 0 64 53" width="64" xmlns="http://www.w3.org/2000/svg"><path d="m0 31.4343 15.828 21.5657h48.172v-15-38l-14.4516 10-14.4516-8v8.0101l-12.3871-2.46465 12.3871 12.79795-30.96777-7.3939 26.15057 22.798z" fill="#000"/></svg>

<svg width="64" height="53" viewBox="0 0 64 53" fill="none" xmlns="http://www.w3.org/2000/svg">
<path d="M0 31.4343L15.828 53H64V38V0L49.5484 10L35.0968 2V10.0101L22.7097 7.54545L35.0968 20.3434L4.12903 12.9495L30.2796 35.7475L0 31.4343Z" fill="black"/>
</svg>
